src/images/icons/icon-dopprod-6.svg

<svg width="44" height="60" viewBox="0 0 44 60" fill="none" xmlns="http://www.w3.org/2000/svg">
<path d="M29.3999 34.1H13.2999C11.6999 34.1 10.3999 32.8 10.3999 31.2V2.9C10.3999 1.3 11.6999 0 13.2999 0H29.3999C30.9999 0 32.2999 1.3 32.2999 2.9V31.2C32.3999 32.8 31.0999 34.1 29.3999 34.1ZM13.2999 1.6C12.4999 1.6 11.8999 2.2 11.8999 2.9V31.2C11.8999 31.9 12.4999 32.5 13.2999 32.5H29.3999C30.1999 32.5 30.7999 31.9 30.7999 31.2V2.9C30.7999 2.2 30.1999 1.6 29.3999 1.6H13.2999Z" fill="#808080"/>
<path d="M43.6 59.4001H42V41.7001C42 40.3001 40.8 39.1001 39.4 39.1001H4.2C2.7 39.1001 1.6 40.3001 1.6 41.7001V59.4001H0V41.7001C0 39.4001 1.9 37.6001 4.2 37.6001H39.4C41.7 37.6001 43.6 39.5001 43.6 41.7001V59.4001Z" fill="#808080"/>
<path d="M34.1001 45.2H8.6001V46.7999H34.1001V45.2Z" fill="#808080"/>
<path d="M39.4 54.2999H4.2C1.9 54.2999 0 52.4 0 50.2H1.6C1.6 51.6 2.8 52.7999 4.2 52.7999H39.4C40.9 52.7999 42 51.6 42 50.2H43.6C43.6 52.5 41.7 54.2999 39.4 54.2999Z" fill="#808080"/>
</svg>

<svg xmlns="http://www.w3.org/2000/svg" width="44" height="60" fill="none" viewBox="0 0 44 60">
	<path fill="gray" d="M29.4 34.1H13.3c-1.6 0-2.9-1.3-2.9-2.9V2.9c0-1.6 1.3-2.9 2.9-2.9h16.1c1.6 0 2.9 1.3 2.9 2.9v28.3c.1 1.6-1.2 2.9-2.9 2.9zM13.3 1.6c-.8 0-1.4.6-1.4 1.3v28.3c0 .7.6 1.3 1.4 1.3h16.1c.8 0 1.4-.6 1.4-1.3V2.9c0-.7-.6-1.3-1.4-1.3H13.3zM43.6 59.4H42V41.7c0-1.4-1.2-2.6-2.6-2.6H4.2c-1.5 0-2.6 1.2-2.6 2.6v17.7H0V41.7c0-2.3 1.9-4.1 4.2-4.1h35.2c2.3 0 4.2 1.9 4.2 4.1v17.7z"/>
	<path fill="gray" d="M34.1 45.2H8.6v1.6h25.5v-1.6zM39.4 54.3H4.2c-2.3 0-4.2-1.9-4.2-4.1h1.6c0 1.4 1.2 2.6 2.6 2.6h35.2c1.5 0 2.6-1.2 2.6-2.6h1.6c0 2.3-1.9 4.1-4.2 4.1z"/>
</svg>
